X:1237
T:The Twin Brothers
M:C|
L:1/8
R:Reel
B:O'Neill's 1237
N:Collected by F. O'Neill
Z:Transcribed by Trish O'Neil
K:G
3GAB|c2BG AGEG|DGBG AGEG|BcABG2Bc|dBAc "End"BGG2 :|
Tg2gfg2dg|egdg egde|Tg2gfg2~d2|eabag eaba2|
fggfg2dg|egdg egde|g2gea2ag|b2ba gfed|]
